X: 175
T: Aşkın Kanununu Yazsam Yeniden
C: Sadettin Öktenay
O: Turkey
F: http://compmusic.upf.edu/node/140
N: acemkurdi--fantezi--nimsofyan--askin_kanununu--sadettin_oktenay
N: makam= acemkurdi
N: form= fantezi
N: usul= nimsofyan = 2/4
M: 2/4
L: 1/16
K: C _B   
Q: 1/4=84
%%MIDI tuningsystem comma53
a2a2 f2f2  | d2d6  | z2ef gfed  | c8  | g2g2 e2e2  | \
w:  ARANAĞME  |   |   |   |   | 
c2c6  | z2de fedc  | 
w:   |   | 
B8  | f2f2 d2d2  | B2B6  | z2cd edcB  | A8  | \
w:   |   |   |   |   | 
A2A2 c2c2  | d2c2 z4  | 
w:  Aş kın  ka nu  |  nu nu   | 
d2d2 z2ed  | c8  | f2f2 d2c2  | B2d2 z4  | \
w:  yaz sam  ye ni  |  den    |  Ki mi  ü mit  |  le ri   | 
c2A2 B2G2  | A8  | A2A2 c2c2  | 
w:  yel_ a lır  gi  |  der    |  Aş kın  ka nu  | 
d2c2 z4  | d2d2 z2ed  | c8  | f2f2 d2c2  | \
w:  nu nu   |  yaz sam  ye ni  |  den    |  Ki mi  ü mit  | 
B2d2 z4  | c2A2 B2G2  | A8  | 
w:  le ri   |  yel_ a lır  gi  |  der    | 
a2b4c'2  | a2g2 f4  | e2f2 d2e2  | c8  | f2f2 d2c2  | \
w:  Ki mi  be  |  nim  gi bi   |  se ver  gö nül  |  den    |  Ki mi  se nin   | 
B2d2 z4  | c2A2 B2G2  | 
w:  gi bi   |  el_ o lur  gi  | 
A8  | a2b4c'2  | a2g2 f4  | e2f2 d2e2  | c8  | \
w:  der    |  Ki mi  be  |  nim  gi bi   |  se ver  gö nül  |  den    | 
f2f2 d2c2  | B2d2 z4  | c2A2 B2G2  | 
w:  Ki mi  se nin   |  gi bi   |  el_ o lur  gi  | 
A8  | a2a2 f2f2  | d2d6  | z2ef gfed  | c8  | \
w:  der    |  ARANAĞME  |   |   |   | 
g2g2 e2e2  | c2c6  | 
w:   |   | 
z2de fedc  | B8  | f2f2 d2d2  | B2B6  | z2cd edcB  | 
w:   |   |   |   |   | 
A8  | A2A2 c2c2  | d2c2 z4  | d2d2 z2ed  | c8  | \
w:   |  Aş kın  ka nu  |  nu nu   |  yaz sam  ye ni  |  den    | 
f2f2 d2c2  | B2d2 z4  | 
w:  Ki mi  ü mit  |  le ri   | 
c2A2 B2G2  | A8  | A2A2 c2c2  | d2c2 z4  | \
w:  yel_ a lır  gi  |  der    |  Aş kın  ka nu  |  nu nu   | 
d2d2 z2ed  | c8  | f2f2 d2c2  | 
w:  yaz sam  ye ni  |  den    |  Ki mi  ü mit  | 
B2d2 z4  | c2A2 B2G2  | A8  | a2b4c'2  | a2g2 f4  | \
w:  le ri   |  yel_ a lır  gi  |  der    |  Ki mi  be  |  nim  gi bi   | 
e2f2 d2e2  | c8  | f2f2 d2c2  | 
w:  se ver  gö nül  |  den    |  Ki mi  se nin   | 
B2d2 z4  | c2A2 B2G2  | A8  | a2b4c'2  | a2g2 f4  | \
w:  gi bi   |  el_ o lur  gi  |  der    |  Ki mi  be  |  nim  gi bi   | 
e2f2 d2e2  | c8  | f2f2 d2c2  | 
w:  se ver  gö nül  |  den    |  Ki mi  se nin   | 
B2d2 z4  | c2A2 B2G2  | A8  | |


